X: 2198
T: Şâd Ol Gönül
C: Rifat Bey (Sermüezzin, Miralay)
O: Turkey
F: http://compmusic.upf.edu/node/140
N: yegah--sarki--devrihindi--sad_ol--rifat_bey
N: makam= yegah
N: form= sarki
N: usul= devrihindi = 7/4
M: 7/4
L: 1/16
K: C _2/4B ^f  
Q: 1/4=102
%%MIDI tuningsystem comma53
D2 E2 ^3/4F2 GA GF EG FE  | D2 E2 ^3/4F2 G3/2F/ EG F4  | \
w:  ARANAĞME  |   | 
^3/4Fe dc cB BA AG FE D2  | 
w:   | 
E^3/4F G=B AG FE ED D4  | D2 E2 ^3/4F2 GA GF EG FE  | 
w:   |  ARANAĞME  | 
D2 E2 ^3/4F2 G3/2F/ EG F4  | ^3/4Fe dc cB BA AG FE D2  | 
w:   |   | 
E^3/4F G=B AG FE ED D4  | d4 e2 e2 d2 c2 B2  | \
w:   |  Şâd  *  ol   | 
c2 dc2B A3G G=f ed  | 
w:  gö nül  *  *  ki  *  ar  | 
d4 de dc Bc d4  | de d2 e2 ^3/4f2 g2 f2 e2  | \
w:  tık  SAZ  |  er *  *  *  din   | 
^3/4f2 g2 a2 f3d e=f ed  | 
w:  dem_ *  i  vi *  sâ  | 
d6 ag ^3/4fg a4  | g4 a2 a8  | {_1/4b}a2 g2 ^3/4f2 e3d dc' ba  | \
w:  le   SAZ  |  Gam  *  mih  |  *  ve rin  *  şa *  şır  | 
a4 a_1/4b ag ^3/4fg a4  | 
w:  dı  SAZ  | 
a2 g2 =f2 e3d ed cB  | c2 d4 c2 B2 c2 d2  | \
w:  git *  *  ti   |  fi gan_ ü  *  nâ  | 
e2 d2 c2 Bc BA .A4  | 
w:  le    | 
A4 d2 de dc BA G2  | A4 _1/4B3/2A/ AB AG ^3/4FE F2  | \
w:  Gam  *  mih  |  ve rin  *  şa *  *  *  şır  | 
E2 ^3/4F2 G2 FG FE D4  | 
w:  dı  *  *  git  | 
E4 ^3/4F2 GF G=B A4  | ^3/4F2 FE D2 EG FE ED D^3/4C  | \
w:  ti   |  fi gan_ *  *  ı  *  *  *  nâ  | 
D6 z4 z4  | 
w:  le    | 
z10  | ^3/4e3g2fe.f3  | ^c2c3^3/4edc=B^3/4A  | \
w:  |  Fasl_ *  ı   |  ba har  e *  riş  | 
B2d^c_1/4B^3/4AG.^3/4F3  | =B3^c2d2^3/4e2f  | 
w:  ti   |  gel *  di   | 
g2agfbagf^3/4e  | ^3/4f2gf^3/4ed^c=B3  | \
w:  za man_ *  *  ı  *  lâ  |  le   SAZ  | 
^3/4e3g2fe.f3  | 
w:  Fasl_ *  ı   | 
^c2c3^3/4edc=B^3/4A  | B2d^c_1/4B^3/4AG.^3/4F3  | \
w:  ba har  e *  riş  |  ti   | 
=B3^c2d2^3/4e2f  | g2agfbagf^3/4e  | 
w:  gel *  di   |  za man_ *  *  ı  *  lâ  | 
^3/4f2gf^3/4efga2z  | z14  | g4 a2 a4 a4  | \
w:  le   SAZ  |  |  Gam  *  mih  | 
{_1/4b}a2 g2 ^3/4f2 e3d dc' ba  | 
w:  *  ve rin  *  şa *  şır  | 
a4 a_1/4b ag ^3/4fg a4  | a2 g2 =f2 e3d ed cB  | \
w:  dı  SAZ  |  git *  *  ti   | 
c2 d4 c2 B2 c2 d2  | 
w:  fi gan_ ü  *  nâ  | 
e2 d2 c2 Bc BA .A4  | A4 d2 de dc BA G2  | \
w:  le    |  Gam  *  mih  | 
A4 _1/4B3/2A/ AB AG ^3/4FE F2  | 
w:  ve rin  *  şa *  *  *  şır  | 
E2 ^3/4F2 G2 FG FE D4  | E4 ^3/4F2 GF G=B A4  | \
w:  dı  *  *  git  |  ti   | 
^3/4F2 FE D2 EG FE ED D^3/4C  | 
w:  fi gan_ *  *  ı  *  *  *  nâ  | 
D6 z4 z4  | |


